packages/assets/static/images/icons/file-zip.svg

<svg width="24" height="24" viewBox="0 0 24 24" xmlns="http://www.w3.org/2000/svg">
<path d="M17.25 14.2505H15.75C15.5511 14.2505 15.3603 14.3295 15.2197 14.4702C15.079 14.6108 15 14.8016 15 15.0005V20.2505C15 20.4494 15.079 20.6402 15.2197 20.7808C15.3603 20.9215 15.5511 21.0005 15.75 21.0005C15.9489 21.0005 16.1397 20.9215 16.2803 20.7808C16.421 20.6402 16.5 20.4494 16.5 20.2505V19.5005H17.25C17.9462 19.5005 18.6139 19.2239 19.1062 18.7316C19.5984 18.2394 19.875 17.5717 19.875 16.8755C19.875 16.1793 19.5984 15.5116 19.1062 15.0193C18.6139 14.527 17.9462 14.2505 17.25 14.2505ZM17.25 18.0005H16.5V15.7505H17.25C17.5484 15.7505 17.8345 15.869 18.0455 16.08C18.2565 16.291 18.375 16.5771 18.375 16.8755C18.375 17.1739 18.2565 17.46 18.0455 17.671C17.8345 17.882 17.5484 18.0005 17.25 18.0005ZM12.75 15.0005V20.2505C12.75 20.4494 12.671 20.6402 12.5303 20.7808C12.3897 20.9215 12.1989 21.0005 12 21.0005C11.8011 21.0005 11.6103 20.9215 11.4697 20.7808C11.329 20.6402 11.25 20.4494 11.25 20.2505V15.0005C11.25 14.8016 11.329 14.6108 11.4697 14.4702C11.6103 14.3295 11.8011 14.2505 12 14.2505C12.1989 14.2505 12.3897 14.3295 12.5303 14.4702C12.671 14.6108 12.75 14.8016 12.75 15.0005ZM9 20.2505C9 20.4494 8.92098 20.6402 8.78033 20.7808C8.63968 20.9215 8.44891 21.0005 8.25 21.0005H5.25C5.11778 21.0017 4.98759 20.9679 4.87264 20.9025C4.75768 20.8372 4.66204 20.7426 4.59542 20.6284C4.52879 20.5142 4.49355 20.3844 4.49325 20.2522C4.49296 20.12 4.52763 19.99 4.59375 19.8755L6.9525 15.7505H5.25C5.05109 15.7505 4.86032 15.6715 4.71967 15.5308C4.57902 15.3902 4.5 15.1994 4.5 15.0005C4.5 14.8016 4.57902 14.6108 4.71967 14.4702C4.86032 14.3295 5.05109 14.2505 5.25 14.2505H8.25C8.38222 14.2493 8.51241 14.2831 8.62736 14.3484C8.74232 14.4138 8.83796 14.5083 8.90458 14.6226C8.97121 14.7368 9.00645 14.8666 9.00675 14.9988C9.00704 15.131 8.97237 15.261 8.90625 15.3755L6.54281 19.5005H8.25C8.44891 19.5005 8.63968 19.5795 8.78033 19.7202C8.92098 19.8608 9 20.0516 9 20.2505ZM20.0306 8.46986L14.7806 3.21986C14.7109 3.15024 14.6282 3.09503 14.5371 3.05739C14.4461 3.01975 14.3485 3.00041 14.25 3.00049H5.25C4.85218 3.00049 4.47064 3.15852 4.18934 3.43983C3.90804 3.72113 3.75 4.10266 3.75 4.50049V11.2505C3.75 11.4494 3.82902 11.6402 3.96967 11.7808C4.11032 11.9215 4.30109 12.0005 4.5 12.0005C4.69891 12.0005 4.88968 11.9215 5.03033 11.7808C5.17098 11.6402 5.25 11.4494 5.25 11.2505V4.50049H13.5V9.00049C13.5 9.1994 13.579 9.39017 13.7197 9.53082C13.8603 9.67147 14.0511 9.75049 14.25 9.75049H18.75V11.2505C18.75 11.4494 18.829 11.6402 18.9697 11.7808C19.1103 11.9215 19.3011 12.0005 19.5 12.0005C19.6989 12.0005 19.8897 11.9215 20.0303 11.7808C20.171 11.6402 20.25 11.4494 20.25 11.2505V9.00049C20.2501 8.90197 20.2307 8.8044 20.1931 8.71335C20.1555 8.6223 20.1003 8.53957 20.0306 8.46986ZM15 8.25049V5.5608L17.6897 8.25049H15Z"/>
</svg>

<svg viewBox="0 0 24 24" xmlns="http://www.w3.org/2000/svg" aria-hidden="true" fill="currentColor"><path d="M17.25 14.25h-1.5A.75.75 0 0 0 15 15v5.25a.75.75 0 1 0 1.5 0v-.75h.75a2.625 2.625 0 0 0 0-5.25m0 3.75h-.75v-2.25h.75a1.125 1.125 0 1 1 0 2.25m-4.5-3v5.25a.75.75 0 1 1-1.5 0V15a.75.75 0 1 1 1.5 0M9 20.25a.75.75 0 0 1-.75.75h-3a.75.75 0 0 1-.656-1.125l2.358-4.124H5.25a.75.75 0 1 1 0-1.5h3a.75.75 0 0 1 .656 1.125L6.543 19.5H8.25a.75.75 0 0 1 .75.75M20.03 8.47l-5.25-5.25a.75.75 0 0 0-.53-.22h-9a1.5 1.5 0 0 0-1.5 1.5v6.75a.75.75 0 1 0 1.5 0V4.5h8.25V9a.75.75 0 0 0 .75.75h4.5v1.5a.75.75 0 1 0 1.5 0V9a.75.75 0 0 0-.22-.53M15 8.25V5.56l2.69 2.69z"/></svg>
